X:1
T:Ho! Who comes here? - Morley
T:#
%%score { 1 | 2 } 3 4
L:1/8
Q:1/4=120
M:4/4
K:Bb
V:1 treble nm="Soprano I" snm="S"
V:2 treble 
V:3 treble nm="Alto" snm="A"
V:4 treble-8 nm="Tenor" snm="T"
V:1
"^Ho! who comes here?" c4 c2 d2 | c2 FG A2 B2 | A2 A2 G2 F2 | %3
w: Ho! who comes|here all a- long with|bag- pip- ing and|
 E4 F2"^Thomas Morley\n(1557-1603)" F2 | f3 f f2 e2 |[M:4/4] d4 c4 | z4 z2 fe | d3 d e2 c2 | %8
w: drum- ming, with|bag- pip- ing and|drum- ming?|O the|Mor- ris 'tis I|
 c2 cB A2 F2 | z2 BA G2 F2 | =E2 F2 (F2 E2) | F8 | z2 c2 c2 d2 | c2 FG A2 B2 | A2 A2 G2 F2 | %15
w: see, 'tis the Mor- ris,|'tis the Mor- ris|dance a- com\- *|ing.|Ho! who comes|here all a- long with|bag- pip- ing and|
 =E4 F2 F2 | f3 f f2 e2 | d4 c4 | z4 z2 fe | d3 d e2 c2 | c2 cB A2 F2 | z2 BA G2 F2 | %22
w: drum- ming, with|bag- pip- ing and|drum- ming?|O the|Mor- ris, 'tis I|see, 'tis the Mor- ris,|'tis the Mor- ris|
 =E2 F2 (F2 E2) | F8 | z8 | z4 c4 | B3 B A2 A2 | G4 F2 f2 | e3 e d2 d2 | c2 c2 z2 cB | %30
w: dance a- com\- *|ing.||Come|la- dies, come, come,|quick- ly, come|la- dies, come, come,|quick- ly, come a-|
 A2 BA G2 F2 | G2 A2 G4 | G8 | z4 z2 c2 | f3 e d2 c2 | =B2 e2 d2 c2 | !>!B2 c4 B2 | c4 z2 G2 | %38
w: way come, I say, O|come, come quick-|ly,|and|see a- bout how|trim, how trim they|dance and trick-|ly, and|
 c3 B A2 G2 | F2 c2 B4- | B2 A2 G4 | A8 | z8 | z8 | z8 | z4 f4- | f2 cd e2 e2 | d2 B2 cd d2 | %48
w: see a- bout how|trim they dance|* and trick-|ly.||||Hey|* there a- gain, hey|ho, there a- gain, hey|
 c2 AB c2 F2 | G8 | A8 | f3 f d3 d | B2 B2 e3 d | c2 B2 c2 c2 | d2 d2 z4 | z4 z2 c2- | cc A3 A F2 | %57
w: ho, how the bells they|shake|it!|Now for our town,|hey ho, now for|our town there and|take it:|now|* for our town, hey|
 c2 f3 e d2 | c2 B4 A2 | B2 B3 B B2 | ABcB G2 F2 | G8 | A8 | c4 A4 | z4 c4 | A4 z4 | c4 A4 | %67
w: ho, now for our|town and take|it. Soft, a- while,|not a- way so fast, they|melt|them.|Pi- per!|Pi-|per!|Pi- per!|
 z4 z2 f2 | e2 e2 d2 d2 | c4 z2 c2 | A2 B2 G4 | A4 z4 | c2 g3 g f2- | (f2 e2) d4 | z2 c4 A2 | %75
w: be|hanged a- while knave,|look, the|dan- cers swelt|them,|the dan- cers swelt|* * them.|Out there,|
 B3 A G2 G2 | A2 c2 d4 | c2 c4 F2 | B3 A G2 G2 | A2 c2 z2 B2 | c4 A4 | B3 A G2 G2 | F2 f3 (e d2) | %83
w: out a- while, stand|out you come|too far, too|far you come I|say in: there|give the|hob- by- horse more|room for to *|
 c8 | c2 c2 d4 | =B4 c3 _B | A2 A2 B4- | B2 A2 G4 | A4 d4 | c4 c4 | c8 | c8 |] %92
w: play|in, there give|the hob- by-|horse more room|* to play|in, more|room to|play|in.|
V:2
 z8 | z2 AB c2 d2 | c2 c2 B2 A2 | G4 A2 c2 | d3 d d2 c2 |[M:4/4] =B4 c4 | z4 cB A2 | F2 B3 B A2 | %8
w: |All a- long with|bag- pip- ing and|drum- ming, with|bag- pip- ing and|drum- ming?|O the Mor-|ris dance, it is|
 G4 F2 fe | d3 d d2 dd | c2 c2 c4 | c2 c2 c2 d2 | c2 FG A2 B2 | A2 AB c2 d2 | c2 c2 B2 A2 | %15
w: com- ing, O the|Mor- ris dance, lo, it|is a- com-|ing. Ho! who comes|here all a- long, comes|here all a- long with|bag- pip- ing and|
 G4 A2 c2 | d3 d d2 c2 | =B4 c4 | z4 cB A2 | F2 B3 B A2 | G4 F2 fe | d3 d d2 dd | c2 c2 c4 | c8 | %24
w: drum- ming, with|bag- pip- ing and|drum- ming?|O the Mor-|ris dance it is|com- ing, O the|Mor- ris dance, lo, it|is a- com-|ing.|
 z4 f4- | f4 e4 | d4 c4- | c4 z2 F2 | CD E2 B,CDE | F2 f2 e3 e | d2 d2 c4 | =B2 (c4 B2) | c8 | %33
w: Come,|* come,|la- dies,|* come|la- dies out, come ye La- dies|out, come la- dies|out, O come,|come quick\- *|ly,|
 z2 c2 f3 e | d3 c B2 e2 | d2 c2 =B2 c2 | d2 e2 d4 | c2 G2 c3 B | A2 G2 F2 B2 | A4 d4 | c8 | c8 | %42
w: and see a-|bout how trim they|dance a- bout, how|trim and trick-|ly, and see a-|bout how trim they|dance and|trick-|ly.|
 z8 | z4 f4- | f2 cd e4 | d2 Bc d2 cB | A4 GA B2- | B2 F2 B3 B | A2 FG A2 =B2 | c8 | c4 f3 f | %51
w: |Hey|* there a- gain,|hey, there a- gain, there a-|gain, there a- gain,|* hey, there a-|gain, how the bells they|shake|it! Now for|
 d3 d B2 F2 | (G3 F GA) B2 | A2 (B4 A2) | B2 f3 f d2- | dd B3 B e2- | ee c2 c2 f2- | fe d2 c2 B2 | %58
w: our town, once for|our * * * town|and take *|it: now for our|* town, now for our|* town, hey ho, now|* for our town once|
 A2 B2 c4 | d2 d3 d d2 | cBAd c2 =B2 | c8 | c4 c4 | A4 z4 | c4 A4 | z4 c4 | A4 z4 | z2 c4 B2- | %68
w: more and take|it. Soft, a- while,|not a- way so fast, they|melt|them. Pi-|per!|Pi- per!|Pi-|per!|be hanged|
 BB A2 B2 F2 | z2 f2 e3 e | d2 d2 c4 | c4 z2 c2 | e3 e d2 c2 | (B2 c4 B2) | c4 z2 f2- | %75
w: * a- while then look,|be hanged a-|while knave, seest|not the|dan- cers how they|swelt * *|them? Out|
 f2 d2 e3 d | c2 A2 B3 A | G4 F2 f2- | f2 g4 =e2 | f3 e d2 g2- | g2 f2 c2 d2- | d2 B2 c3 B | %82
w: * there, out a-|while, you come I|say in: there|* give the|hob- by- horse more|* room, there give|* the hob- by-|
 A2 d4 B2- | B2 A2 G4 | A4 z2 F2 | G4 =E4 | F3 E D2 G2 | =E2 F4 E2 | F2 c2 B4- | B4 A4 | G8 | A8 |] %92
w: horse more room|* to play|in, there|give the|hob- by- horse more|room to play|in, more room|* to|play|in.|
V:3
 z8 | z8 | z2 CD E2 F2 | C4 F2 A2 | B3 B B2 G2 |[M:4/4] G4 =E2 GF | =E2 E2 F2 C2 | D2 F2 G2 F2 | %8
w: ||All a- long, who|comes here with|bag- pip- ing and|drum- ming? 'tis the|Mor- ris dance, the|Mor- ris dance a|
 =E4 F2 A2 | B2 F2 z2 BA | G2 F2 G4 | A4 z4 | F4 F2 B,2 | F4 z4 | z2 CD E2 F2 | C4 F2 A2 | %16
w: com- ing, a-|com- ing, 'tis the|Mor- ris com-|ing,|Ho! who comes|here|all a- long, who|comes here with|
 B3 B B2 G2 | G4 =E2 GF | =E2 E2 F2 C2 | D2 F2 G2 F2 | =E4 F2 A2 | B2 F2 z2 BA | G2 F2 G4 | %23
w: bag- pip- ing and|drum- ming? 'tis the|Mor- ris dance, the|Mor- ris dance a-|com- ing, a-|com- ing, 'tis the|Mor- ris com-|
 A4 _A4 | G4 F4 | G8 | F4 z4 | z2 G2 A3 B | c4 B4 | A4 G4 | z2 F2 E2 C2 | D2 F2 D4 | =E2 G2 c3 B | %33
w: ing. Come|la- dies,|quick-|ly,|come la- dies,|out, come|quick- ly,|come la- dies,|out, come quick-|ly, and see a-|
 A3 G F2 (GA) | B2 F3 (DEF) | G4 G4 | z2 C2 G3 F | =E3 D C2 (DE) | F2 C3 A, B,2 | C2 F3 F G2 | %40
w: bout how trim they *|dance, trim and * *|trick- ly,|and see a-|bout how trim, how *|trim, O how trim,|how trim they dance|
 =E2 (!>!F4 E2) | F8 | c6 GA | B4 A2 F2 | A2 A2 G2 G2- | G2 DE F4 | C2 F2 EF G2 | F2 DE F2 B,2 | %48
w: and trick\- *|ly.|Hey there a-|gain, hey ho,|there a- gain, hey,|* there a- gain,|hey ho, there a- gain,|hey, there a- gain, the|
 C2 F3 E D2 | C4 C4 | z2 F3 F D2- | DD B,4 B,2 | E3 D C2 B,2 | F2 G2 F4 | B,4 z2 B2- | BB G3 G E2 | %56
w: bells, hey, how they|shake it!|Now for our|* town once there,|now for our town|there and take|it: now|* for our town, for|
 G2 F2 c2 B2 | A2 B2 F2 F2- | FE D2 B,4 | B,2 F3 F B,2 | FGFD =E2 F2 | (=E2 F4 E2) | F8 | z8 | z8 | %65
w: our town, now, now|for our town once|* more and take|it. Soft, a- while,|not a- way so fast, they|melt * *|them.|||
 z2 F2 F2 =E2 | F4 z4 | z8 | z4 z2 B2 | A3 A G2 G2 | F2 F2 =E4 | F2 F2 _A3 A | G3 A B2 F2 | G8 | %74
w: Who calls? who|calls?||be|hanged a- while knaves|all, what care|I, the dan- cers|though they swelt, they|swelt|
 C4 z4 | z8 | z2 F2 D2 D2 | E3 D C2 D2 | D2 B,2 B2 c2- | c2 A2 B3 A | G2 A2 z2 F2 | G4 =E4 | %82
w: them?||Out there, you|come too far I|say in: there give|* the hob- by-|horse room, there|give the|
 F3 !courtesy!_E D2 G2 | G2 F4 =E2 | F4 z4 | z4 z2 C2 | D4 B,4 | C8 | F2 F2 D2 G2- | G2 F2 (F4- | %90
w: hob- by- horse more|room to play|in,|more|room to|play|in, yet more room|* to play|
 F4 =E4) | F8 |] %92
w: |in.|
V:4
 z8 | z8 | z8 | z4 z2 f2 | B3 B B2 c2 |[M:4/4][K:treble-8] G4 c4 | z2 cB A2 F2 | B4 E2 F2 | c4 F4 | %9
w: |||With|bag- pip- ing and|drum- ming?|'tis the Mor- ris|dance, 'tis the|Mor- ris|
 B4 B4 | c8 | F8 | z8 | z8 | z8 | z4 z2 f2 | B3 B B2 c2 | G4 c4 | z2 cB A2 F2 | B4 E2 F2 | c4 F4 | %21
w: dance a|com-|ing.||||with|bag- pip- ing and|drum- ming?|'tis the Mor- ris|dance, 'tis the|Mor- ris|
 B4 B4 | c8 | F4 f4 | e4 d4 | c4 z2 c2 | d3 e f2 f2 | =e4 f4 | z2 c2 GA B2 | FGAB c2 c2 | %30
w: dance a|com-|ing. Come,|come, la-|dies, come|la- dies, out, come|quick- ly,|come la- dies, out,|come ye la- dies, out, come|
 d2 B2 c2 A2 | G2 F2 G4 | c6 c2 | f3 e d2 c2 | B2 B3 B c2 | G4 G4 | z4 z2 G2 | c3 B A2 G2 | %38
w: la- dies, out, O|come come quick-|ly, and|see how trim they|dance, trim- ly and|trick- ly,|and|see a- bout how|
 F2 =E2 F2 G2 | A4 B4 | c8 | F4 f4- | f2 cd e4 | d2 B2 d3 e | f2 f2 c2 c2 | GA B4 AG | FGAB c2 GA | %47
w: trim they dance, how|trim and|trick-|ly. Hey|* there a- gain,|hey ho, there a-|gain, a- gain, hey,|there a- gain, there a-|gain, a- gain, a- gain, how the|
 B4 B4 | F4 z2 f2 | =e2 (f4 e2) | f4 z4 | z8 | z8 | z4 z2 f2- | ff d3 d B2- | BB e3 e c2- | %56
w: bells they|shake, hey,|they shake *|it!|||Now|* for our town, now|* for our town hey,|
 c2 f3 e d2 | c2 B2 A2 B2 | F8 | B2 B3 B G2 | AGAB c2 d2 | c8 | F8 | z4 z2 f2 | f2 =e2 f4 | z8 | %66
w: * now for our|town once more and|take|it: Soft, a- while,|not a- way so fast, they|melt|them.|What|Pi- per ho!||
 z4 f4 | e3 e d2 d2 | c4 GA B2 | FGAB c2 c2 | d2 B2 c4 | F4 z2 F2 | c3 c (B2 A2) | G4 z2 g2- | %74
w: be|hanged a- while knave,|thou, seest thou not,|seest thou not the dan- cers,|how they swelt|them, the|dan- cers swelt *|them? Out|
 g2 =e2 f3 _e | d2 B2 c4 | F4 z4 | c4 A2 B2- | BA G2 G2 c2 | F2 f2 !>!g4 | =e2 f3 _e d2 | %81
w: * there, out a-|while, stand out|there:|fie, you come|* too far, I say|in: there give|the hob- by- horse|
 B2 G2 z2 c2 | d4 B4 | c8 | F8 | z8 | z8 | z8 | z2 F2 G4 | (=E4 F4) | c8 | F8 |] %92
w: more room, more|room to|play|in,||||more room|to *|play|in.|

